X:1
T:The Auld Guidwife
N:taken from the High Road to Linton
S:NLS Acc.11516/6
Z: Jack Campin <jc:purr.demon.co.uk> scots-l 2001-6-28
N:book of pipe tunes dated 1863 written by John Clyde and R. McKenzie
N:from the papers of G.S. MacLennan
M:6/8
L:1/8
K:D
D |: F/G/AA d2A | BAB d2A | F/G/AA d2c | TB>AF E2D :|
   F/G/AA BGG | AFF BEE | F/G/Ad BGG | TA>GF E2D |
   F/G/AA BGG | AFF BEE | F/G/Ad cAc | TB>AF E2D |]
